X:2522
T:Cantar de Chigre (CT 098)
R:Chigre
C:Tradicional
S:Música Tradicional Asturiana, (C) Tello & Tito. Asturies, 2001.
S:http://pagina.de/MusTradAst <telloytito@asturies.org>
N:Canción de empleo indeterminado, transcrita en Uviéu.
N:Muy rara vez la hemos oído aplicada como xiraldilla.
N:Se canta más bien en reuniones tabernarias, aunque su poesía no encierra pensamientos báquicos.
O:Uvieú
A:Asturies
Z:Cancioneru de Torner 098
M:3/8
L:1/8
Q:3/8=88
W:Como la zorra tiene
W:largas las patas,
W:se sube a los balcones
W:de las beatas,
W:las cuales
W:le regalan agujas,
W:dedales, botones,
W:para las faltriqueras
W:de sus calzones.
W:
W:---------------------
W:
W:Veinticino estudiantes
W:se han reunido
W:a bailar con la zorra
W:y lo han conseguido.
W:
W:Bailaron,
W:pero no la cansaron,
W:porque ella
W:es como una centellan,
W:que corre
W:y se sube a la torre
W:de un vuelo.
W:
W:Pega la zorra un salto
W:y está en el suelo.
W:----------------------
W:
W:A partir del verso «bailaron» se repite la fórmula melódica comprendida entre los compases 9 y 12 inclusive,
W:adaptando a esta fórmula los versos siguientes, hasta llegar al que dice «de un vuelo».
W:Después de cantado este último verso, se suprimen las notas [do, mi, re] y se termina la poesía con los dos últimos grupos rítimicos de la melodía, según aparecen en la transcripción.
K:Gm
|d d/d/d/d/|e d2|GAB|e d2|
d d/d/d/d/|e d2|cBA|AGG|B A2-|A z A/B/|
cBc|AGG|BAG|B A2|
d d/d/d/d/|e d2|cBA|A G2 :||


